X: 41
T: New Rigged Ship
R: jig
B: NEFR #41
Z: 2012 John Chambers <jc:trillian.mit.edu>
M: 6/8
L: 1/8
K: D
|:"D"ded d2f | ded d2f | "A7"ecA Acd | ecA ABc |\
| "D"ded d2f | "Bm"ded d2f | "A7"ecA ABc | "D"d3 d3 :|
|:"D"a2f a2f | "Bm"ded dga | "Em"b2g b2g | "A7"efe efg |\
| "D"a2f a2f | "Bm"ded "G"g3 |"A7"ecA ABc | "D"d3 d3 :|


